X: 1
T: I Had A Lass Till I Ran At Her
M: 4/4
L: 1/8
R: reel
K: Ador
|:A e2 g fdec|A e2 g2 GdB|A e2 g fdef|g2 a/2g/2f/2e/2 dGdB:|
|:Ag f/2g/2a fdec|Ag f/2g/2a GB/2c/2 dB|Ag f/2g/2a fdef|g2 a/2g/2f/2e/2 dGdB:|
